build/images/logo.svg

<svg width="126" height="29" viewBox="0 0 126 29" fill="none" xmlns="http://www.w3.org/2000/svg">
<path d="M29.664 13.928H38.04L37.512 16.568H29.136L29.664 13.928ZM28.104 23H24.984L28.344 6.2H40.608L40.08 8.816H30.936L28.104 23ZM40.2653 23L43.6253 6.2H46.7453L43.3853 23H40.2653ZM51.3373 23L54.1693 8.84H48.6013L49.1293 6.2H63.3613L62.8333 8.84H57.2653L54.4573 23H51.3373ZM67.0468 13.928H75.4228L74.8948 16.568H66.5188L67.0468 13.928ZM65.4868 23H62.3668L65.7268 6.2H77.9908L77.4628 8.816H68.3188L65.4868 23ZM77.6481 23L81.0081 6.2H84.1281L81.2961 20.36H90.0801L89.5521 23H77.6481ZM96.8393 13.184H105.215L104.711 15.752H96.3353L96.8393 13.184ZM95.6393 20.384H105.143L104.615 23H92.0153L95.3753 6.2H107.639L107.111 8.816H97.9433L95.6393 20.384ZM105.866 23L114.722 13.472L114.506 15.248L109.586 6.2H112.898L116.594 13.088L115.202 13.016L121.49 6.2H125.042L116.714 15.224L116.786 13.448L122.018 23H118.682L114.77 15.68L116.186 15.752L109.61 23H105.866Z" fill="white"/>
<path d="M29.664 13.928V13.428C29.4257 13.428 29.2205 13.5962 29.1737 13.8299L29.664 13.928ZM38.04 13.928L38.5303 14.0261C38.5597 13.8792 38.5216 13.7268 38.4267 13.611C38.3317 13.4952 38.1898 13.428 38.04 13.428V13.928ZM37.512 16.568V17.068C37.7503 17.068 37.9555 16.8998 38.0023 16.6661L37.512 16.568ZM29.136 16.568L28.6457 16.4699C28.6163 16.6168 28.6544 16.7691 28.7493 16.885C28.8443 17.0008 28.9862 17.068 29.136 17.068V16.568ZM28.104 23V23.5C28.3424 23.5 28.5476 23.3317 28.5943 23.0979L28.104 23ZM24.984 23L24.4937 22.9019C24.4643 23.0488 24.5024 23.2012 24.5973 23.317C24.6923 23.4328 24.8342 23.5 24.984 23.5V23ZM28.344 6.2V5.7C28.1057 5.7 27.9005 5.86823 27.8537 6.10194L28.344 6.2ZM40.608 6.2L41.0981 6.29892C41.1278 6.15193 41.0899 5.99939 40.995 5.88335C40.9 5.7673 40.758 5.7 40.608 5.7V6.2ZM40.08 8.816V9.316C40.318 9.316 40.523 9.14823 40.5701 8.91492L40.08 8.816ZM30.936 8.816V8.316C30.6976 8.316 30.4924 8.48431 30.4457 8.7181L30.936 8.816ZM29.664 14.428H38.04V13.428H29.664V14.428ZM37.5497 13.8299L37.0217 16.4699L38.0023 16.6661L38.5303 14.0261L37.5497 13.8299ZM37.512 16.068H29.136V17.068H37.512V16.068ZM29.6263 16.6661L30.1543 14.0261L29.1737 13.8299L28.6457 16.4699L29.6263 16.6661ZM28.104 22.5H24.984V23.5H28.104V22.5ZM25.4743 23.0981L28.8343 6.29806L27.8537 6.10194L24.4937 22.9019L25.4743 23.0981ZM28.344 6.7H40.608V5.7H28.344V6.7ZM40.1179 6.10108L39.5899 8.71708L40.5701 8.91492L41.0981 6.29892L40.1179 6.10108ZM40.08 8.316H30.936V9.316H40.08V8.316ZM30.4457 8.7181L27.6137 22.9021L28.5943 23.0979L31.4263 8.9139L30.4457 8.7181ZM40.2652 23L39.775 22.9019C39.7456 23.0488 39.7836 23.2012 39.8786 23.317C39.9735 23.4328 40.1155 23.5 40.2652 23.5V23ZM43.6252 6.2V5.7C43.3869 5.7 43.1817 5.86823 43.135 6.10194L43.6252 6.2ZM46.7453 6.2L47.2355 6.29806C47.2649 6.15117 47.2269 5.99885 47.1319 5.883C47.037 5.76716 46.895 5.7 46.7453 5.7V6.2ZM43.3853 23V23.5C43.6236 23.5 43.8288 23.3318 43.8755 23.0981L43.3853 23ZM40.7555 23.0981L44.1155 6.29806L43.135 6.10194L39.775 22.9019L40.7555 23.0981ZM43.6252 6.7H46.7453V5.7H43.6252V6.7ZM46.255 6.10194L42.895 22.9019L43.8755 23.0981L47.2355 6.29806L46.255 6.10194ZM43.3853 22.5H40.2652V23.5H43.3853V22.5ZM51.3373 23L50.847 22.9019C50.8176 23.0488 50.8557 23.2012 50.9506 23.317C51.0456 23.4328 51.1875 23.5 51.3373 23.5V23ZM54.1693 8.84L54.6596 8.93806C54.689 8.79117 54.651 8.63885 54.556 8.523C54.461 8.40716 54.3191 8.34 54.1693 8.34V8.84ZM48.6013 8.84L48.111 8.74194C48.0816 8.88883 48.1197 9.04115 48.2146 9.15699C48.3096 9.27284 48.4515 9.34 48.6013 9.34V8.84ZM49.1293 6.2V5.7C48.891 5.7 48.6858 5.86823 48.639 6.10194L49.1293 6.2ZM63.3613 6.2L63.8516 6.29806C63.881 6.15117 63.843 5.99885 63.748 5.883C63.653 5.76716 63.5111 5.7 63.3613 5.7V6.2ZM62.8333 8.84V9.34C63.0717 9.34 63.2769 9.17177 63.3236 8.93806L62.8333 8.84ZM57.2653 8.84V8.34C57.0267 8.34 56.8213 8.50865 56.7749 8.74274L57.2653 8.84ZM54.4573 23V23.5C54.696 23.5 54.9013 23.3313 54.9478 23.0973L54.4573 23ZM51.8276 23.0981L54.6596 8.93806L53.679 8.74194L50.847 22.9019L51.8276 23.0981ZM54.1693 8.34H48.6013V9.34H54.1693V8.34ZM49.0916 8.93806L49.6196 6.29806L48.639 6.10194L48.111 8.74194L49.0916 8.93806ZM49.1293 6.7H63.3613V5.7H49.1293V6.7ZM62.871 6.10194L62.343 8.74194L63.3236 8.93806L63.8516 6.29806L62.871 6.10194ZM62.8333 8.34H57.2653V9.34H62.8333V8.34ZM56.7749 8.74274L53.9669 22.9027L54.9478 23.0973L57.7558 8.93726L56.7749 8.74274ZM54.4573 22.5H51.3373V23.5H54.4573V22.5ZM67.0468 13.928V13.428C66.8085 13.428 66.6033 13.5962 66.5565 13.8299L67.0468 13.928ZM75.4228 13.928L75.9131 14.0261C75.9425 13.8792 75.9045 13.7268 75.8095 13.611C75.7145 13.4952 75.5726 13.428 75.4228 13.428V13.928ZM74.8948 16.568V17.068C75.1332 17.068 75.3384 16.8998 75.3851 16.6661L74.8948 16.568ZM66.5188 16.568L66.0285 16.4699C65.9991 16.6168 66.0372 16.7691 66.1321 16.885C66.2271 17.0008 66.369 17.068 66.5188 17.068V16.568ZM65.4868 23V23.5C65.7252 23.5 65.9305 23.3317 65.9771 23.0979L65.4868 23ZM62.3668 23L61.8765 22.9019C61.8471 23.0488 61.8852 23.2012 61.9801 23.317C62.0751 23.4328 62.217 23.5 62.3668 23.5V23ZM65.7268 6.2V5.7C65.4885 5.7 65.2833 5.86823 65.2365 6.10194L65.7268 6.2ZM77.9908 6.2L78.4809 6.29892C78.5106 6.15193 78.4727 5.99939 78.3778 5.88335C78.2828 5.7673 78.1408 5.7 77.9908 5.7V6.2ZM77.4628 8.816V9.316C77.7008 9.316 77.9058 9.14823 77.9529 8.91492L77.4628 8.816ZM68.3188 8.816V8.316C68.0804 8.316 67.8752 8.48431 67.8285 8.7181L68.3188 8.816ZM67.0468 14.428H75.4228V13.428H67.0468V14.428ZM74.9325 13.8299L74.4045 16.4699L75.3851 16.6661L75.9131 14.0261L74.9325 13.8299ZM74.8948 16.068H66.5188V17.068H74.8948V16.068ZM67.0091 16.6661L67.5371 14.0261L66.5565 13.8299L66.0285 16.4699L67.0091 16.6661ZM65.4868 22.5H62.3668V23.5H65.4868V22.5ZM62.8571 23.0981L66.2171 6.29806L65.2365 6.10194L61.8765 22.9019L62.8571 23.0981ZM65.7268 6.7H77.9908V5.7H65.7268V6.7ZM77.5007 6.10108L76.9727 8.71708L77.9529 8.91492L78.4809 6.29892L77.5007 6.10108ZM77.4628 8.316H68.3188V9.316H77.4628V8.316ZM67.8285 8.7181L64.9965 22.9021L65.9771 23.0979L68.8091 8.9139L67.8285 8.7181ZM77.6481 23L77.1578 22.9019C77.1284 23.0488 77.1664 23.2012 77.2614 23.317C77.3564 23.4328 77.4983 23.5 77.6481 23.5V23ZM81.0081 6.2V5.7C80.7697 5.7 80.5645 5.86823 80.5178 6.10194L81.0081 6.2ZM84.1281 6.2L84.6184 6.29806C84.6477 6.15117 84.6097 5.99885 84.5147 5.883C84.4198 5.76716 84.2779 5.7 84.1281 5.7V6.2ZM81.2961 20.36L80.8058 20.2619C80.7764 20.4088 80.8144 20.5611 80.9094 20.677C81.0044 20.7928 81.1463 20.86 81.2961 20.86V20.36ZM90.0801 20.36L90.5704 20.4581C90.5997 20.3112 90.5617 20.1588 90.4667 20.043C90.3718 19.9272 90.2299 19.86 90.0801 19.86V20.36ZM89.5521 23V23.5C89.7904 23.5 89.9956 23.3318 90.0424 23.0981L89.5521 23ZM78.1384 23.0981L81.4984 6.29806L80.5178 6.10194L77.1578 22.9019L78.1384 23.0981ZM81.0081 6.7H84.1281V5.7H81.0081V6.7ZM83.6378 6.10194L80.8058 20.2619L81.7864 20.4581L84.6184 6.29806L83.6378 6.10194ZM81.2961 20.86H90.0801V19.86H81.2961V20.86ZM89.5898 20.2619L89.0618 22.9019L90.0424 23.0981L90.5704 20.4581L89.5898 20.2619ZM89.5521 22.5H77.6481V23.5H89.5521V22.5ZM96.8392 13.184V12.684C96.6002 12.684 96.3946 12.8532 96.3486 13.0877L96.8392 13.184ZM105.215 13.184L105.706 13.2803C105.735 13.1336 105.696 12.9817 105.601 12.8663C105.506 12.7509 105.365 12.684 105.215 12.684V13.184ZM104.711 15.752V16.252C104.95 16.252 105.156 16.0828 105.202 15.8483L104.711 15.752ZM96.3353 15.752L95.8446 15.6557C95.8158 15.8024 95.8542 15.9543 95.9492 16.0697C96.0441 16.1851 96.1858 16.252 96.3353 16.252V15.752ZM95.6393 20.384L95.1489 20.2863C95.1196 20.4332 95.1577 20.5854 95.2527 20.7011C95.3477 20.8169 95.4895 20.884 95.6393 20.884V20.384ZM105.143 20.384L105.633 20.4829C105.663 20.3359 105.625 20.1834 105.53 20.0673C105.435 19.9513 105.293 19.884 105.143 19.884V20.384ZM104.615 23V23.5C104.853 23.5 105.058 23.3322 105.105 23.0989L104.615 23ZM92.0153 23L91.525 22.9019C91.4956 23.0488 91.5336 23.2012 91.6286 23.317C91.7235 23.4328 91.8655 23.5 92.0153 23.5V23ZM95.3753 6.2V5.7C95.1369 5.7 94.9317 5.86823 94.885 6.10194L95.3753 6.2ZM107.639 6.2L108.129 6.29892C108.159 6.15193 108.121 5.99939 108.026 5.88335C107.931 5.7673 107.789 5.7 107.639 5.7V6.2ZM107.111 8.816V9.316C107.349 9.316 107.554 9.14823 107.601 8.91492L107.111 8.816ZM97.9433 8.816V8.316C97.7048 8.316 97.4995 8.48444 97.4529 8.71833L97.9433 8.816ZM96.8392 13.684H105.215V12.684H96.8392V13.684ZM104.725 13.0877L104.221 15.6557L105.202 15.8483L105.706 13.2803L104.725 13.0877ZM104.711 15.252H96.3353V16.252H104.711V15.252ZM96.8259 15.8483L97.3299 13.2803L96.3486 13.0877L95.8446 15.6557L96.8259 15.8483ZM95.6393 20.884H105.143V19.884H95.6393V20.884ZM104.653 20.2851L104.125 22.9011L105.105 23.0989L105.633 20.4829L104.653 20.2851ZM104.615 22.5H92.0153V23.5H104.615V22.5ZM92.5055 23.0981L95.8655 6.29806L94.885 6.10194L91.525 22.9019L92.5055 23.0981ZM95.3753 6.7H107.639V5.7H95.3753V6.7ZM107.149 6.10108L106.621 8.71708L107.601 8.91492L108.129 6.29892L107.149 6.10108ZM107.111 8.316H97.9433V9.316H107.111V8.316ZM97.4529 8.71833L95.1489 20.2863L96.1296 20.4817L98.4336 8.91367L97.4529 8.71833ZM105.866 23L105.5 22.6596C105.364 22.8053 105.328 23.0174 105.408 23.1997C105.487 23.3821 105.667 23.5 105.866 23.5V23ZM114.722 13.472L115.218 13.5324C115.244 13.3173 115.129 13.1098 114.933 13.0186C114.736 12.9273 114.503 12.9729 114.356 13.1316L114.722 13.472ZM114.506 15.248L114.067 15.4869C114.171 15.6779 114.386 15.7799 114.6 15.7391C114.813 15.6984 114.976 15.5242 115.002 15.3084L114.506 15.248ZM109.586 6.2V5.7C109.41 5.7 109.246 5.7929 109.156 5.94449C109.066 6.09607 109.062 6.28392 109.147 6.43885L109.586 6.2ZM112.898 6.2L113.338 5.96359C113.251 5.80128 113.082 5.7 112.898 5.7V6.2ZM116.594 13.088L116.568 13.5873C116.748 13.5967 116.92 13.5081 117.016 13.3557C117.113 13.2033 117.12 13.0106 117.034 12.8516L116.594 13.088ZM115.202 13.016L114.834 12.677C114.703 12.8195 114.666 13.0252 114.739 13.2047C114.812 13.3843 114.982 13.5053 115.176 13.5153L115.202 13.016ZM121.49 6.2V5.7C121.35 5.7 121.217 5.75836 121.122 5.86097L121.49 6.2ZM125.042 6.2L125.409 6.5391C125.544 6.39316 125.58 6.18135 125.5 5.99944C125.42 5.81752 125.24 5.7 125.042 5.7V6.2ZM116.714 15.224L116.214 15.2037C116.206 15.4132 116.329 15.6057 116.522 15.6859C116.716 15.7661 116.939 15.7171 117.081 15.5631L116.714 15.224ZM116.786 13.448L117.224 13.2078C117.116 13.0108 116.89 12.9099 116.672 12.9612C116.453 13.0125 116.295 13.2033 116.286 13.4277L116.786 13.448ZM122.018 23V23.5C122.195 23.5 122.358 23.4068 122.448 23.2549C122.538 23.1029 122.541 22.9147 122.456 22.7598L122.018 23ZM118.682 23L118.241 23.2357C118.328 23.3984 118.497 23.5 118.682 23.5V23ZM114.77 15.68L114.795 15.1806C114.615 15.1715 114.444 15.2599 114.348 15.4121C114.251 15.5643 114.244 15.7567 114.329 15.9157L114.77 15.68ZM116.186 15.752L116.556 16.088C116.686 15.9449 116.722 15.7398 116.648 15.5612C116.574 15.3826 116.404 15.2625 116.211 15.2526L116.186 15.752ZM109.61 23V23.5C109.751 23.5 109.885 23.4404 109.98 23.336L109.61 23ZM106.232 23.3404L115.088 13.8124L114.356 13.1316L105.5 22.6596L106.232 23.3404ZM114.226 13.4116L114.01 15.1876L115.002 15.3084L115.218 13.5324L114.226 13.4116ZM114.945 15.0091L110.025 5.96114L109.147 6.43885L114.067 15.4869L114.945 15.0091ZM109.586 6.7H112.898V5.7H109.586V6.7ZM112.457 6.43641L116.153 13.3244L117.034 12.8516L113.338 5.96359L112.457 6.43641ZM116.62 12.5887L115.228 12.5167L115.176 13.5153L116.568 13.5873L116.62 12.5887ZM115.569 13.355L121.857 6.53903L121.122 5.86097L114.834 12.677L115.569 13.355ZM121.49 6.7H125.042V5.7H121.49V6.7ZM124.674 5.8609L116.346 14.8849L117.081 15.5631L125.409 6.5391L124.674 5.8609ZM117.213 15.2443L117.285 13.4683L116.286 13.4277L116.214 15.2037L117.213 15.2443ZM116.347 13.6882L121.579 23.2402L122.456 22.7598L117.224 13.2078L116.347 13.6882ZM122.018 22.5H118.682V23.5H122.018V22.5ZM119.123 22.7643L115.211 15.4443L114.329 15.9157L118.241 23.2357L119.123 22.7643ZM114.744 16.1794L116.16 16.2514L116.211 15.2526L114.795 15.1806L114.744 16.1794ZM115.816 15.416L109.24 22.664L109.98 23.336L116.556 16.088L115.816 15.416ZM109.61 22.5H105.866V23.5H109.61V22.5Z" fill="white"/>
<path fill-rule="evenodd" clip-rule="evenodd" d="M21.6224 11.5808C21.1183 12.0843 20.3019 12.0843 19.7985 11.5808L13.4136 5.20014C12.9102 4.69669 12.9102 3.88103 13.4136 3.37758C13.9171 2.87414 14.7341 2.87414 15.2376 3.37758L17.0587 5.19666L18.4265 3.82957C18.6678 3.58758 19.0961 3.58758 19.3381 3.82957L21.1704 5.66047C21.2914 5.78147 21.3596 5.94488 21.3596 6.11594C21.3596 6.287 21.2914 6.4511 21.1704 6.5714L19.8019 7.93849L21.6224 9.75826C22.1259 10.2617 22.1259 11.0774 21.6224 11.5808ZM19.7985 15.2273C19.2943 15.7308 18.478 15.7308 17.9738 15.2273L9.76503 7.02339C9.26158 6.51994 9.26158 5.70358 9.76503 5.20014C10.2692 4.69669 11.0855 4.69669 11.5897 5.20014L19.7985 13.4041C20.3019 13.9075 20.3019 14.7239 19.7985 15.2273ZM14.3259 13.4041L10.4103 17.3308L7.67406 14.5959L11.5897 10.6692L14.3259 13.4041ZM12.2343 22.7999C11.7308 23.3033 10.9138 23.3033 10.4103 22.7999L2.20153 14.5959C1.69808 14.0925 1.69808 13.2761 2.20153 12.7727C2.70567 12.2692 3.52203 12.2692 4.02617 12.7727L12.2343 20.9766C12.7384 21.4801 12.7384 22.2964 12.2343 22.7999ZM8.58638 22.7999C9.08983 23.3033 9.08983 24.119 8.58638 24.6224C8.08224 25.1259 7.26588 25.1259 6.76174 24.6224L4.94197 22.8033L3.57627 24.1676C3.45041 24.2935 3.28561 24.3568 3.1208 24.3568C2.95531 24.3568 2.7905 24.2935 2.66464 24.1676L0.832353 22.3374C0.71136 22.2164 0.643214 22.053 0.643214 21.8813C0.643214 21.7102 0.71136 21.5468 0.832353 21.4258L2.19805 20.0615L0.377584 18.2417C-0.125861 17.7383 -0.125861 16.9226 0.377584 16.4192C0.881029 15.9157 1.69808 15.9157 2.20153 16.4192L8.58638 22.7999Z" fill="white"/>
</svg>

<svg xmlns="http://www.w3.org/2000/svg" width="126" height="29" fill="none"><path fill="#fff" d="M29.664 13.928h8.376l-.528 2.64h-8.376l.528-2.64ZM28.104 23h-3.12l3.36-16.8h12.264l-.528 2.616h-9.144L28.104 23Zm12.161 0 3.36-16.8h3.12L43.385 23h-3.12Zm11.072 0L54.17 8.84h-5.568l.528-2.64h14.232l-.528 2.64h-5.568L54.457 23h-3.12Zm15.71-9.072h8.376l-.528 2.64h-8.376l.528-2.64ZM65.487 23h-3.12l3.36-16.8H77.99l-.528 2.616h-9.144L65.487 23Zm12.161 0 3.36-16.8h3.12l-2.832 14.16h8.784L89.552 23H77.648Zm19.191-9.816h8.376l-.504 2.568h-8.376l.504-2.568Zm-1.2 7.2h9.504L104.615 23h-12.6l3.36-16.8h12.264l-.528 2.616h-9.168L95.64 20.384ZM105.866 23l8.856-9.528-.216 1.776-4.92-9.048h3.312l3.696 6.888-1.392-.072L121.49 6.2h3.552l-8.328 9.024.072-1.776L122.018 23h-3.336l-3.912-7.32 1.416.072L109.61 23h-3.744Z"/><path fill="#fff" d="M29.664 13.928v-.5a.5.5 0 0 0-.49.402l.49.098Zm8.376 0 .49.098a.5.5 0 0 0-.49-.598v.5Zm-.528 2.64v.5a.5.5 0 0 0 .49-.402l-.49-.098Zm-8.376 0-.49-.098a.5.5 0 0 0 .49.598v-.5ZM28.104 23v.5a.5.5 0 0 0 .49-.402l-.49-.098Zm-3.12 0-.49-.098a.5.5 0 0 0 .49.598V23Zm3.36-16.8v-.5a.5.5 0 0 0-.49.402l.49.098Zm12.264 0 .49.099a.5.5 0 0 0-.49-.599v.5Zm-.528 2.616v.5a.5.5 0 0 0 .49-.401l-.49-.099Zm-9.144 0v-.5a.5.5 0 0 0-.49.402l.49.098Zm-1.272 5.612h8.376v-1h-8.376v1Zm7.886-.598-.528 2.64.98.196.528-2.64-.98-.196Zm-.038 2.238h-8.376v1h8.376v-1Zm-7.886.598.528-2.64-.98-.196-.528 2.64.98.196ZM28.104 22.5h-3.12v1h3.12v-1Zm-2.63.598 3.36-16.8-.98-.196-3.36 16.8.98.196ZM28.344 6.7h12.264v-1H28.344v1Zm11.774-.599-.528 2.616.98.198.528-2.616-.98-.198Zm-.038 2.215h-9.144v1h9.144v-1Zm-9.634.402-2.832 14.184.98.196 2.832-14.184-.98-.196ZM40.266 23l-.491-.098a.5.5 0 0 0 .49.598V23Zm3.36-16.8v-.5a.5.5 0 0 0-.491.402l.49.098Zm3.12 0 .49.098a.5.5 0 0 0-.49-.598v.5ZM43.385 23v.5a.5.5 0 0 0 .49-.402l-.49-.098Zm-2.63.098 3.36-16.8-.981-.196-3.36 16.8.98.196ZM43.625 6.7h3.12v-1h-3.12v1Zm2.629-.598-3.36 16.8.98.196 3.36-16.8-.98-.196ZM43.385 22.5h-3.12v1h3.12v-1Zm7.952.5-.49-.098a.5.5 0 0 0 .49.598V23ZM54.17 8.84l.49.098a.5.5 0 0 0-.49-.598v.5Zm-5.568 0-.49-.098a.5.5 0 0 0 .49.598v-.5Zm.528-2.64v-.5a.5.5 0 0 0-.49.402l.49.098Zm14.232 0 .49.098a.5.5 0 0 0-.49-.598v.5Zm-.528 2.64v.5a.5.5 0 0 0 .49-.402l-.49-.098Zm-5.568 0v-.5a.5.5 0 0 0-.49.403l.49.097ZM54.457 23v.5a.5.5 0 0 0 .49-.403l-.49-.097Zm-2.63.098 2.833-14.16-.981-.196-2.832 14.16.98.196ZM54.17 8.34h-5.568v1h5.568v-1Zm-5.077.598.528-2.64-.981-.196-.528 2.64.98.196Zm.037-2.238h14.232v-1H49.13v1Zm13.742-.598-.528 2.64.98.196.529-2.64-.981-.196Zm-.038 2.238h-5.568v1h5.568v-1Zm-6.058.403-2.808 14.16.98.194 2.809-14.16-.981-.194ZM54.457 22.5h-3.12v1h3.12v-1Zm12.59-8.572v-.5a.5.5 0 0 0-.49.402l.49.098Zm8.376 0 .49.098a.5.5 0 0 0-.49-.598v.5Zm-.528 2.64v.5a.5.5 0 0 0 .49-.402l-.49-.098Zm-8.376 0-.49-.098a.5.5 0 0 0 .49.598v-.5ZM65.487 23v.5a.5.5 0 0 0 .49-.402l-.49-.098Zm-3.12 0-.49-.098a.5.5 0 0 0 .49.598V23Zm3.36-16.8v-.5a.5.5 0 0 0-.49.402l.49.098Zm12.264 0 .49.099a.5.5 0 0 0-.49-.599v.5Zm-.528 2.616v.5a.5.5 0 0 0 .49-.401l-.49-.099Zm-9.144 0v-.5a.5.5 0 0 0-.49.402l.49.098Zm-1.272 5.612h8.376v-1h-8.376v1Zm7.886-.598-.529 2.64.981.196.528-2.64-.98-.196Zm-.038 2.238h-8.376v1h8.376v-1Zm-7.886.598.528-2.64-.98-.196-.529 2.64.981.196ZM65.487 22.5h-3.12v1h3.12v-1Zm-2.63.598 3.36-16.8-.98-.196-3.36 16.8.98.196ZM65.727 6.7H77.99v-1H65.727v1ZM77.5 6.101l-.528 2.616.98.198.528-2.616-.98-.198Zm-.038 2.215h-9.144v1h9.144v-1Zm-9.634.402-2.832 14.184.98.196L68.81 8.914l-.98-.196ZM77.649 23l-.491-.098a.5.5 0 0 0 .49.598V23Zm3.36-16.8v-.5a.5.5 0 0 0-.491.402l.49.098Zm3.12 0 .49.098a.5.5 0 0 0-.49-.598v.5Zm-2.833 14.16-.49-.098a.5.5 0 0 0 .49.598v-.5Zm8.784 0 .49.098a.5.5 0 0 0-.49-.598v.5ZM89.552 23v.5a.5.5 0 0 0 .49-.402l-.49-.098Zm-11.414.098 3.36-16.8-.98-.196-3.36 16.8.98.196ZM81.008 6.7h3.12v-1h-3.12v1Zm2.63-.598-2.832 14.16.98.196 2.832-14.16-.98-.196ZM81.296 20.86h8.784v-1h-8.784v1Zm8.294-.598-.528 2.64.98.196.528-2.64-.98-.196Zm-.038 2.238H77.648v1h11.904v-1Zm7.287-9.316v-.5a.5.5 0 0 0-.49.404l.49.096Zm8.376 0 .491.096a.5.5 0 0 0-.491-.596v.5Zm-.504 2.568v.5a.5.5 0 0 0 .491-.404l-.491-.096Zm-8.376 0-.49-.096a.5.5 0 0 0 .49.596v-.5Zm-.696 4.632-.49-.098a.5.5 0 0 0 .49.598v-.5Zm9.504 0 .49.099a.499.499 0 0 0-.49-.599v.5ZM104.615 23v.5a.5.5 0 0 0 .49-.401l-.49-.099Zm-12.6 0-.49-.098a.5.5 0 0 0 .49.598V23Zm3.36-16.8v-.5a.5.5 0 0 0-.49.402l.49.098Zm12.264 0 .49.099a.499.499 0 0 0-.49-.599v.5Zm-.528 2.616v.5a.5.5 0 0 0 .49-.401l-.49-.099Zm-9.168 0v-.5a.5.5 0 0 0-.49.402l.49.098Zm-1.104 4.868h8.376v-1h-8.376v1Zm7.886-.596-.504 2.568.981.192.504-2.568-.981-.192Zm-.014 2.164h-8.376v1h8.376v-1Zm-7.885.596.504-2.568-.981-.192-.504 2.568.98.192Zm-1.187 5.036h9.504v-1h-9.504v1Zm9.014-.599-.528 2.616.98.198.528-2.616-.98-.198Zm-.038 2.215h-12.6v1h12.6v-1Zm-12.11.598 3.36-16.8-.98-.196-3.36 16.8.98.196ZM95.376 6.7h12.264v-1H95.375v1Zm11.774-.599-.528 2.616.98.198.528-2.616-.98-.198Zm-.038 2.215h-9.168v1h9.168v-1Zm-9.658.402-2.304 11.568.98.196 2.305-11.568-.981-.196ZM105.866 23l-.366-.34a.499.499 0 0 0 .366.84V23Zm8.856-9.528.496.06a.5.5 0 0 0-.862-.4l.366.34Zm-.216 1.776-.439.239a.5.5 0 0 0 .935-.179l-.496-.06Zm-4.92-9.048v-.5a.5.5 0 0 0-.439.739l.439-.239Zm3.312 0 .44-.236a.5.5 0 0 0-.44-.264v.5Zm3.696 6.888-.026.5a.5.5 0 0 0 .466-.736l-.44.236Zm-1.392-.072-.368-.339a.501.501 0 0 0 .342.838l.026-.499ZM121.49 6.2v-.5a.501.501 0 0 0-.368.161l.368.339Zm3.552 0 .367.34a.499.499 0 0 0-.367-.84v.5Zm-8.328 9.024-.5-.02a.501.501 0 0 0 .867.36l-.367-.34Zm.072-1.776.438-.24a.5.5 0 0 0-.938.22l.5.02ZM122.018 23v.5a.5.5 0 0 0 .438-.74l-.438.24Zm-3.336 0-.441.236a.5.5 0 0 0 .441.264V23Zm-3.912-7.32.025-.5a.499.499 0 0 0-.466.736l.441-.236Zm1.416.072.37.336a.5.5 0 0 0-.345-.835l-.025.499ZM109.61 23v.5a.5.5 0 0 0 .37-.164l-.37-.336Zm-3.378.34 8.856-9.528-.732-.68-8.856 9.528.732.68Zm7.994-9.928-.216 1.776.992.12.216-1.776-.992-.12Zm.719 1.597-4.92-9.048-.878.478 4.92 9.048.878-.478ZM109.586 6.7h3.312v-1h-3.312v1Zm2.871-.264 3.696 6.888.881-.472-3.696-6.888-.881.472Zm4.163 6.153-1.392-.072-.052.998 1.392.072.052-.998Zm-1.051.766 6.288-6.816-.735-.678-6.288 6.816.735.678ZM121.49 6.7h3.552v-1h-3.552v1Zm3.184-.84-8.328 9.025.735.678 8.328-9.024-.735-.678Zm-7.461 9.384.072-1.776-.999-.04-.072 1.776.999.04Zm-.866-1.556 5.232 9.552.877-.48-5.232-9.552-.877.48Zm5.671 8.812h-3.336v1h3.336v-1Zm-2.895.264-3.912-7.32-.882.472 3.912 7.32.882-.472Zm-4.379-6.585 1.416.072.051-.998-1.416-.072-.051.998Zm1.072-.763-6.576 7.248.74.672 6.576-7.248-.74-.672ZM109.61 22.5h-3.744v1h3.744v-1Z"/><path fill="#fff" fill-rule="evenodd" d="M21.622 11.58a1.29 1.29 0 0 1-1.823 0L13.414 5.2a1.289 1.289 0 1 1 1.824-1.822l1.82 1.819 1.369-1.367a.663.663 0 0 1 .911 0l1.832 1.83a.644.644 0 0 1 0 .911l-1.368 1.367 1.82 1.82c.504.504.504 1.32 0 1.823ZM19.8 15.228a1.29 1.29 0 0 1-1.825 0L9.765 7.023A1.29 1.29 0 1 1 11.59 5.2l8.209 8.204a1.29 1.29 0 0 1 0 1.823Zm-5.473-1.823-3.916 3.927-2.736-2.735 3.916-3.927 2.736 2.735ZM12.234 22.8a1.29 1.29 0 0 1-1.824 0l-8.208-8.204a1.29 1.29 0 1 1 1.824-1.823l8.208 8.204c.504.503.504 1.32 0 1.823Zm-3.648 0a1.288 1.288 0 1 1-1.824 1.822l-1.82-1.819-1.366 1.365a.642.642 0 0 1-.911 0l-1.833-1.83a.644.644 0 0 1 0-.912l1.366-1.364-1.82-1.82a1.288 1.288 0 1 1 1.824-1.823l6.384 6.38Z" clip-rule="evenodd"/></svg>
